src/assets/img/eye.svg

<svg width="24" height="24" viewBox="0 0 24 24" fill="none" xmlns="http://www.w3.org/2000/svg">
<path d="M14.53 9.46992L9.47001 14.5299C8.82001 13.8799 8.42001 12.9899 8.42001 11.9999C8.42001 10.0199 10.02 8.41992 12 8.41992C12.99 8.41992 13.88 8.81992 14.53 9.46992Z" stroke="#919EAB" stroke-width="1.5" stroke-linecap="round" stroke-linejoin="round"/>
<path d="M17.82 5.76998C16.07 4.44998 14.07 3.72998 12 3.72998C8.47 3.72998 5.18 5.80998 2.89 9.40998C1.99 10.82 1.99 13.19 2.89 14.6C3.68 15.84 4.6 16.91 5.6 17.77" stroke="#919EAB" stroke-width="1.5" stroke-linecap="round" stroke-linejoin="round"/>
<path d="M8.42001 19.5302C9.56001 20.0102 10.77 20.2702 12 20.2702C15.53 20.2702 18.82 18.1902 21.11 14.5902C22.01 13.1802 22.01 10.8102 21.11 9.40018C20.78 8.88018 20.42 8.39018 20.05 7.93018" stroke="#919EAB" stroke-width="1.5" stroke-linecap="round" stroke-linejoin="round"/>
<path d="M15.51 12.7002C15.25 14.1102 14.1 15.2602 12.69 15.5202" stroke="#919EAB" stroke-width="1.5" stroke-linecap="round" stroke-linejoin="round"/>
<path d="M9.47 14.5298L2 21.9998" stroke="#919EAB" stroke-width="1.5" stroke-linecap="round" stroke-linejoin="round"/>
<path d="M22 2L14.53 9.47" stroke="#919EAB" stroke-width="1.5" stroke-linecap="round" stroke-linejoin="round"/>
</svg>

<svg xmlns="http://www.w3.org/2000/svg" width="24" height="24" fill="none"><path stroke="#919EAB" stroke-linecap="round" stroke-linejoin="round" stroke-width="1.5" d="m14.53 9.47-5.06 5.06a3.576 3.576 0 1 1 5.06-5.06Z"/><path stroke="#919EAB" stroke-linecap="round" stroke-linejoin="round" stroke-width="1.5" d="M17.82 5.77C16.07 4.45 14.07 3.73 12 3.73c-3.53 0-6.82 2.08-9.11 5.68-.9 1.41-.9 3.78 0 5.19.79 1.24 1.71 2.31 2.71 3.17M8.42 19.53c1.14.48 2.35.74 3.58.74 3.53 0 6.82-2.08 9.11-5.68.9-1.41.9-3.78 0-5.19-.33-.52-.69-1.01-1.06-1.47"/><path stroke="#919EAB" stroke-linecap="round" stroke-linejoin="round" stroke-width="1.5" d="M15.51 12.7a3.565 3.565 0 0 1-2.82 2.82M9.47 14.53 2 22M22 2l-7.47 7.47"/></svg>
